X: 4916
T: Branson Nights
R: reel
M: 4/4
K: Dmajor
|:DE (3EED EDCE|Dcdc ADFA|BGDA FDEF|GFED CE (3A,B,C|
DE (3EED EDCE|Dcdc ADFA|BGDA FDEF|GECE D2 (3DDD:|
|:ef (3fff fedf|eA (3AAA agfd|BdgA df (G2|G)A (3Bcd fe (3eee|
ef (3fff fedf|eA (3AAA agfd|Bdg A2 def|1 gece dbag:|2 gece dBAF||

